X:50
T:Angels We Have Heard On High
%%stretchlast false
M:4/4
L:1/4
K:Eb clef=C1
"^I"[EBeg] [EBeg] "^iii"[GBdg] [GBdb] | "^v"[Fcfb] "^V"[B,Bdb]/ "^♯iii°"[B,Bda]/ "^I"[EBeg]2 | [EBeg] "^V"[B,Bdf] "^I"[EBeg] "^I¹"[GBeb] | "^I²"[Beg] "^iii¹"[B,Bdg]/ "^V7"[B,Adf]/ "^I"[EGe]2 | [EBeg] [EBeg] "^iii"[GBdg] [GBdb] | "^v"[Ccfb] "^V¹"[DBdb]/ "^♯iii°"[DBda]/ "^I"[EBeg]2 | [EBeg] "^V"[B,Bdf] "^I"[EBeg] "^I¹"[G,Beb] | "^I²"[B,Beg] "^iii¹"[B,Bdg]/ "^V7"[B,Adf]/ "^I"[EGe]2 | [EGeb] [EGgb]/ [EGfb]/ "^vi"[Ccec']/ [Cceb]/ "^IV²"[Ecea]/ "^vi¹"[Eceg]/ | "^ii7"[Fcea] "^ii"[Fcfa]/ "^ii7"[Fcea]/ "^V"[B,Bdb]/ "^♯iii°"[B,Bda]/ "^iii²"[DBdg]/ "^V¹"[DBdf]/ | "^Imaj7"[EBdg] "^I"[EBeg]/ "^Imaj7"[EBdg]/ "^vi+"[A,Aca]/ [A,Acg]/ "^ii²"[CAcf]/ "^IV¹"[CAce]/ | "^V¹"[DFBf] "^vi"[CEBf]/ "^vi7"[CEB]/ "^V"[B,DB] "^♯iii°"[A,DB] | "^I¹"[G,EBe] "^V"[B,Bdf] "^I"[EBeg] "^IV"[A,cea] | "^I²"[B,Beg]2 "^V"[B,Bdf] "^i"[Ee] | "^I"[EGgb]/ [EGfb]/ "^vi7"[CGeb] "^vi¹"[Ecec']/ [Eceb]/ "^ii7"[Fcea]/ "^vi"[Fceg]/ | "^ii"[Fcfa]/ "^ii7"[Fcea]/ "^♯iii°"[B,cda] "^V¹"[DBdb]/ "^♯iii°"[DBda]/ "^Imaj7"[EBdg]/ "^V"[EBdf]/ | "^I"[EBeg]/ "^Imaj7"[EBdg]/ "^vi+²"[A,Bcg] "^vi+"[CAca]/ [CAcg]/ "^V7¹"[DABf]/ [DABe]/ | "^v"[CFBf]/ [CFBf]/ [B,EBf]/ "^i"[B,EB]/ "^♯iii°"[A,DB] "^iii"[G,DB] | "^i7²"[B,Ede] [EBef] "^i¹"[A,Beg] [B,cea] | "^I²"[B,Beg] "^iii¹"[B,Bdg] "^V"[B,Bdf] "^i"[EABf] | "^I"[EGBe]4 |]
